X:1
T:Ictocna Makedonija
O:Macedoine de l'est
M:2/4
L:1/8
K:F
D2 EF | {F} G2 GF | GFGA | GF (3FED | D2 EF |
FG GF | FCFG | A2 (3ABc | {c} d2 dc | cB (3BAG |
{A} B2 BA | AGFC | G2 GF | AGGF | F4- | F2 z2 ||
